X: 32147
T: Peter O'Leary's
R: reel
M: 4/4
K: Gmajor
DG~G2 FGAc|BGBd cBAG|FD~D2 FDGD|FD~D2 FAGE|
DG~G2 FGAc|BGBd cBAG|FD~D2 EDEF|1 GBAF ~G3E:|2 GBAF G2AB||
|:~c3B c2AB|cBAG (3EFG AG|FD~D2 FDGD|FD~D2 FGAB|
~c3B c2AB|cBAG (3EFG AG|FD~D2 EDEF|1 GBAF G2AB:|2 GBAF ~G3E||

